X:1
T:"The Night We Made The Match" (hornpipe) 1636
C:after Mr. Cronin
L:1/8
M:4/4
I:linebreak $
K:C
V:1 treble 
V:1
 BEA |SOSOOO .!fermata!PMTuC Ma2 | a2 (AB) ^cBAB | ^cdec A2 (e^f) | ^g2 ^GA BAGA | B^cdB ^GBd^g | %6
 a2 AB ^cBcd |$ ede^f ^gedB | ^cde^g ae^fd | ^cAB^G A2 :: AB | ^cee^f edcA | ^cee^f e2 dc |$ %13
 Bdde dB^GA | B^cde dcBd | ^ceec BeeB | ^cAB^G ABcB | A^ce^g ae^fd | ^cAB^G A2 :| %19
